X: 642
T: Eveleen's Bower
C:O'Carolan
B:O'Neill's 642
Z: 1997 by John Chambers <jc@trillian.mit.edu>
N:"Moderate"
M:C
L:1/8
K:A
E \
| A2AA (AG)FE | EAAB (AG)FE | A2AA Ac(ec) | (B<G)E2 E2zd |
| cBcd {c}e2cA | (A<F)(ED) (DC)(DE) | F>GAF (BA)GF | E2A2 A2z ||
E \
| A2A2 AGFE | EAA2 (AG)(FE) | A2A>A Acec | (B<G)E2 E2zd |
| cBcd e2cA | A>FED DCDE | F>GAF (BA)GF | E2A2 A2z |]


